krita/pics/misc-dark/dark_pathpoint-curve.svg

<svg xmlns:dc="http://purl.org/dc/elements/1.1/" xmlns:cc="http://creativecommons.org/ns#" xmlns:rdf="http://www.w3.org/1999/02/22-rdf-syntax-ns#" xmlns="http://www.w3.org/2000/svg" xmlns:sodipodi="http://sodipodi.sourceforge.net/DTD/sodipodi-0.dtd" xmlns:inkscape="http://www.inkscape.org/namespaces/inkscape" viewBox="0 0 16 16" version="1.1" id="svg8" sodipodi:docname="dark_pathpoint-curve.svg" width="16" height="16" inkscape:version="0.92.1 r15371"><metadata id="metadata12"><rdf:RDF><cc:Work><dc:format>image/svg+xml</dc:format><dc:type rdf:resource="http://purl.org/dc/dcmitype/StillImage"/><dc:title/><dc:date>2017</dc:date><dc:creator><cc:Agent><dc:title>Timothée Giet</dc:title></cc:Agent></dc:creator><dc:description>Based on Breeze icons</dc:description><cc:license rdf:resource="http://creativecommons.org/licenses/by-sa/4.0/"/></cc:Work><cc:License rdf:about="http://creativecommons.org/licenses/by-sa/4.0/"><cc:permits rdf:resource="http://creativecommons.org/ns#Reproduction"/><cc:permits rdf:resource="http://creativecommons.org/ns#Distribution"/><cc:requires rdf:resource="http://creativecommons.org/ns#Notice"/><cc:requires rdf:resource="http://creativecommons.org/ns#Attribution"/><cc:permits rdf:resource="http://creativecommons.org/ns#DerivativeWorks"/><cc:requires rdf:resource="http://creativecommons.org/ns#ShareAlike"/></cc:License></rdf:RDF></metadata><sodipodi:namedview pagecolor="#ffffff" bordercolor="#666666" borderopacity="1" objecttolerance="10" gridtolerance="10" guidetolerance="10" inkscape:pageopacity="0" inkscape:pageshadow="2" inkscape:window-width="1884" inkscape:window-height="1051" id="namedview10" showgrid="true" inkscape:zoom="30.341309" inkscape:cx="-4.9174217" inkscape:cy="11" inkscape:window-x="0" inkscape:window-y="0" inkscape:window-maximized="1" inkscape:current-layer="svg8"><inkscape:grid type="xygrid" id="grid4489"/></sodipodi:namedview><path style="color:#373737;fill:#373737;fill-opacity:1;stroke:none" d="M13 0v1a12 12 0 0 0-8.926 4H5v.47A11 11 0 0 1 13 2v1h3V0zm1 1h1v1h-1zM4 5.086A12 12 0 0 0 1 13H0v3h3v-3H2a11 11 0 0 1 2.521-7H4zM1 14h1v1H1z" id="path4" inkscape:connector-curvature="0"/><path style="color:#3daee9;fill:currentColor;fill-opacity:1;stroke:none" d="M2 3v5h5V3zm2 2h1v1H4z" id="path6" inkscape:connector-curvature="0" sodipodi:nodetypes="cccccccccc"/></svg>

<?xml version="1.0" encoding="UTF-8" standalone="no"?>
<svg
   xmlns:dc="http://purl.org/dc/elements/1.1/"
   xmlns:cc="http://creativecommons.org/ns#"
   xmlns:rdf="http://www.w3.org/1999/02/22-rdf-syntax-ns#"
   xmlns:svg="http://www.w3.org/2000/svg"
   xmlns="http://www.w3.org/2000/svg"
   xmlns:sodipodi="http://sodipodi.sourceforge.net/DTD/sodipodi-0.dtd"
   xmlns:inkscape="http://www.inkscape.org/namespaces/inkscape"
   viewBox="0 0 16 16"
   version="1.1"
   id="svg8"
   sodipodi:docname="dark_pathpoint-curve.svg"
   width="16"
   height="16"
   inkscape:version="0.92.1 r15371">
  <metadata
     id="metadata12">
    <rdf:RDF>
      <cc:Work
         rdf:about="">
        <dc:format>image/svg+xml</dc:format>
        <dc:type
           rdf:resource="http://purl.org/dc/dcmitype/StillImage" />
        <dc:title></dc:title>
        <dc:date>2017</dc:date>
        <dc:creator>
          <cc:Agent>
            <dc:title>Timothée Giet</dc:title>
          </cc:Agent>
        </dc:creator>
        <dc:description>Based on Breeze icons</dc:description>
        <cc:license
           rdf:resource="http://creativecommons.org/licenses/by-sa/4.0/" />
      </cc:Work>
      <cc:License
         rdf:about="http://creativecommons.org/licenses/by-sa/4.0/">
        <cc:permits
           rdf:resource="http://creativecommons.org/ns#Reproduction" />
        <cc:permits
           rdf:resource="http://creativecommons.org/ns#Distribution" />
        <cc:requires
           rdf:resource="http://creativecommons.org/ns#Notice" />
        <cc:requires
           rdf:resource="http://creativecommons.org/ns#Attribution" />
        <cc:permits
           rdf:resource="http://creativecommons.org/ns#DerivativeWorks" />
        <cc:requires
           rdf:resource="http://creativecommons.org/ns#ShareAlike" />
      </cc:License>
    </rdf:RDF>
  </metadata>
  <sodipodi:namedview
     pagecolor="#ffffff"
     bordercolor="#666666"
     borderopacity="1"
     objecttolerance="10"
     gridtolerance="10"
     guidetolerance="10"
     inkscape:pageopacity="0"
     inkscape:pageshadow="2"
     inkscape:window-width="1884"
     inkscape:window-height="1051"
     id="namedview10"
     showgrid="true"
     inkscape:zoom="30.341309"
     inkscape:cx="-4.9174217"
     inkscape:cy="11"
     inkscape:window-x="0"
     inkscape:window-y="0"
     inkscape:window-maximized="1"
     inkscape:current-layer="svg8">
    <inkscape:grid
       type="xygrid"
       id="grid4489" />
  </sodipodi:namedview>
  <defs
     id="defs3051">
    <style
       type="text/css"
       id="current-color-scheme">
      .ColorScheme-Text {
        color:#373737;
      }
      .ColorScheme-Highlight {
        color:#3daee9;
      }
      </style>
  </defs>
  <path
     style="color:#373737;fill:#373737;fill-opacity:1;stroke:none"
     d="M 13,0 V 1 A 12,12 0 0 0 4.0742188,5 H 5 V 5.4707031 A 11,11 0 0 1 13,2 v 1 h 3 V 0 Z m 1,1 h 1 V 2 H 14 Z M 4,5.0859375 A 12,12 0 0 0 1,13 H 0 v 3 H 3 V 13 H 2 A 11,11 0 0 1 4.5214844,6 H 4 Z M 1,14 h 1 v 1 H 1 Z"
     class="ColorScheme-Text"
     id="path4"
     inkscape:connector-curvature="0" />
  <path
     style="color:#3daee9;fill:currentColor;fill-opacity:1;stroke:none"
     d="M 2,3 V 8 H 7 V 3 Z M 4,5 H 5 V 6 H 4 Z"
     class="ColorScheme-Highlight"
     id="path6"
     inkscape:connector-curvature="0"
     sodipodi:nodetypes="cccccccccc" />
</svg>
